!!!SOCIAL_FUNCTION:	songs of the moccasin game
!!!PDT:	1918

Specific Region: Dakotas, Minnesota, Montana, Nebraska
!!!REG: Dakotas and Montana
!!!LING_GROUP: Siouan
!!!LANG: Tone
!!!OTL@ENG: Song of the Moccasin Game (f)
!!!ONM: No. 211
**kern
*Imale
*clefF4
*k[b-e-]
*M3/4
*>[A,A]
*>norep[A]
*>A
=!|:
*MM108
16d
=1
4d
8.c
16B-
4B-
=2||
*M2/4
4..B-
16d
=3||
*M3/4
4d
8.c
16B-
4B-
=4||
*M2/4
4..G
16B-
=5||
*M3/4
4B-
8.F
16G
4G
=6||
*M2/4
4..G
16B-
=7||
*M3/4
4B-
8.F
16G
4G
=8||
*M2/4
4..G
==:|!
*-
!!!CNT: Native American -- Sioux
!!!MRD: 1911/07//-1914///
!!!OCL: Frances Densmore
!!!YOR1: Teton Sioux Music, Bulletin 61,
!!!YOR2: Bureau of American Ethnology, Smithsonian Institution
!!!PPR: Government Printing Office
!!!PPP: Washington, D.C.
!!!PDT: 1918///
!!!ENC: Craig Stuart Sapp
!!!END: 2002/03/25/
!!!EEV: 2002/03/31/
!!!AGN: Game Song
!!!MPN@@SIO: Waha'chungka-nong'pa
!!!MPN@ENG: Two Shields
!!!TXO: Teton Sioux
!!!MLC: Standing Rock Reservation, South Dakota, United States of America
!!!ARL: 45.9/-100.7#
!!!catalog: Catalogue No. 525
!!!PPG: 488
!!!EFL: 216/245
!!!VTS: 3814956483
